src/Icon/svgs/TextH1.svg

<svg width="24" height="24" viewBox="0 0 24 24" fill="none" xmlns="http://www.w3.org/2000/svg">
<path d="M2.5 3H4.5V11H13.5V3H15.5V21H13.5V13H4.5V21H2.5V3Z" fill="#1B1C1D"/>
<path fill-rule="evenodd" clip-rule="evenodd" d="M20.9477 11.6483C21.1379 11.7898 21.25 12.0129 21.25 12.25V19.5H23V21H18V19.5H19.75V13.258L18.2155 13.7184L17.7845 12.2816L20.2845 11.5316C20.5116 11.4635 20.7575 11.5068 20.9477 11.6483Z" fill="#1B1C1D"/>
</svg>

<svg xmlns="http://www.w3.org/2000/svg" width="24" height="24" fill="#1b1c1d"  xmlns:v="https://vecta.io/nano"><path d="M2.5 3h2v8h9V3h2v18h-2v-8h-9v8h-2V3z"/><path fill-rule="evenodd" d="M20.948 11.648a.75.75 0 0 1 .302.602v7.25H23V21h-5v-1.5h1.75v-6.242l-1.535.46-.431-1.437 2.5-.75a.75.75 0 0 1 .663.117z"/></svg>
